icons/Star.svg

<svg width="24" height="24" viewBox="0 0 24 24" fill="none" xmlns="http://www.w3.org/2000/svg">
<path fill-rule="evenodd" clip-rule="evenodd" d="M12,4.1214l-2.22334,4.26142c-0.17644,0.33816 -0.49761,0.57727 -0.87218,0.6493l-4.91852,0.94587l3.38351,3.57151c0.27489,0.2901 0.39445,0.6943 0.32167,1.0873l-0.92388,4.9889l4.65604,-2.4212c0.3615,-0.1879 0.7919,-0.1879 1.1534,0l4.6561,2.4212l-0.9239,-4.9889c-0.0728,-0.393 0.0468,-0.7972 0.3216,-1.0873l3.3836,-3.57151l-4.9186,-0.94587c-0.3745,-0.07203 -0.6957,-0.31114 -0.8721,-0.6493zM10.8918,3.00273c0.4673,-0.89573 1.7491,-0.89573 2.2164,-0.00001l2.3892,4.57919l5.248,1.00924c0.9696,0.18645 1.3504,1.37046 0.6714,2.08715l-3.6098,3.8104l0.9939,5.3675c0.1896,1.0237 -0.8821,1.8169 -1.8058,1.3366l-4.9951,-2.5975l-4.99513,2.5975c-0.92369,0.4803 -1.99537,-0.3129 -1.8058,-1.3366l0.99398,-5.3675l-3.60985,-3.8104c-0.67901,-0.71669 -0.29815,-1.9007 0.67138,-2.08715l5.24805,-1.00924z" fill="#002B51"/>
</svg>

<svg width="24" height="24" viewBox="0 0 24 24" fill="none" xmlns="http://www.w3.org/2000/svg">
<path fill-rule="evenodd" clip-rule="evenodd" d="M12 4.1214L9.77666 8.38282C9.60022 8.72098 9.27905 8.96009 8.90448 9.03212L3.98596 9.97799L7.36947 13.5495C7.64436 13.8396 7.76392 14.2438 7.69114 14.6368L6.76726 19.6257L11.4233 17.2045C11.7848 17.0166 12.2152 17.0166 12.5767 17.2045L17.2328 19.6257L16.3089 14.6368C16.2361 14.2438 16.3557 13.8396 16.6305 13.5495L20.0141 9.97799L15.0955 9.03212C14.721 8.96009 14.3998 8.72098 14.2234 8.38282L12 4.1214ZM10.8918 3.00273C11.3591 2.107 12.6409 2.107 13.1082 3.00272L15.4974 7.58191L20.7454 8.59115C21.715 8.7776 22.0958 9.96161 21.4168 10.6783L17.807 14.4887L18.8009 19.8562C18.9905 20.8799 17.9188 21.6731 16.9951 21.1928L12 18.5953L7.00487 21.1928C6.08118 21.6731 5.0095 20.8799 5.19907 19.8562L6.19305 14.4887L2.5832 10.6783C1.90419 9.96161 2.28505 8.7776 3.25458 8.59115L8.50263 7.58191L10.8918 3.00273Z" fill="#002B51"/>
</svg>
